X:2
T:Red Haired Boy
L:1/8
M:4/4
Z:abc-transcription Josh Larios <hades@elsewhere.org>, 2014.01.13
B:Complete Tractor, p.156
K:A mix
|: "A"E2 A2 AB cd | ef ec "D"d2 cd | "A"e2 A2 AB cA | "G"BA GF G2 GF |
"A"E2 A2 AB cd | ef ec "D"d2 cd | "A"e^g af ef ed | "A"c2 A2 A2 ef ::
"G"g2 f2 e2 ag | "D"f2 e2 d2 cd | "A"e2 A2 AB cA | "G"BA GF G2 GF |
"A"E2 A2 AB cd | ef ec "D"d2 cd | "A"e^g af "E"ef ed | "A"c2 A2 A4 :|

